X: 382
T: Miller of Drone
C:Nath. Gow
O:Scotland
B:Keith Norman MacDonald : "The Skye collection of the best reels & strathspeys extant" : 1887
Z:Ralph Palmer
R:Strathspey
%%staves [(1 2)]
M:C
L:1/8
K:A
(c/B/) !segno!| A<FF<A E>FE<C | u.nA,<.nA,{/c}d>c {dc}B2 [1 Bc/B/ |(A<F)F>A E>FE<C | D<FE>G A2 A :]
[2 Bc/d/ | (e>B)c>G A>EF>C | D>FE>G A2 A || (c/d/) | e<cc<a e>e (f/e/).d/.c/ | e<cc<a Tf2 (f>a) |
e<cc>a e>e (f/e/).d/.c/ | {Bc}d>B{/d}c>A {/G}F2 F(c/d/) | e<cc<a | e>e (f/e/).d/.c/ |
e>f{/g}a>g {ag}f2 f>g | (3agf (3efg (3aed (3cBA | (3dcB (3cBA (3Ffe (3dcB !segno!|]


